X:350
T: Moig Cross
S: B.Breathnach:"Ceol Rince na hEireann" IV/71 (gan ainm)
Z: B.Black
L: 1/8
M: 12/8
Q: 360
R: jig
K: G
EDE AGE G2A B2d|EDE AGE G2E D3|
E3 AGE G2A B2d|e2d BAG A3 A3 :|
e3 edB d3 dBd|e2e e2f g2e d2B|
c2c c2A B2B B2G|A2c B2A G2E D3 :|
